X:1
T:F Major William Billings, 1779
T:Isaac Watts, 1709 (Hymn 57, Book 2)            88. 88. (L. M.) 
T:Franklin
T:Transcribed from Music in Miniature, 1779.
%%score [ 1 2 3 4 ]
L:1/8
Q:1/4=150
M:3/2
K:F
V:1 treble nm="Treble" snm="Tr."
V:2 treble nm="Counter" snm="C."
V:3 treble-8 nm="Tenor" snm="T."
V:4 bass nm="Bass" snm="B."
V:1
 c4 | A8 c4 | (c4 B4) A4 | B8 c4 | c8 c4 | (F3 G A4) B4 | A8 c4 | (c4 B4) A4 | A8 A4 | %9
w: 1.~Lord,|how se-|cure * and|blest are|they Who|feel * * the|joys of|par- * doned|sin! Should|
w: 2.~The|day glides|sweet- * ly|o'er their|heads, Made|up * * of|in- no-|cence * and|love; And|
 (A3 B c4) (d2 e2) | f8 c4 | c8 =B4 | c8 A4 | (c3 B A4) d4 | (c4 d2 B2) c4 | d8 c4 | c8 |] %17
w: storms * * of *|wrath shake|earth and|sea, Their|minds * * have|heaven * * and|peace with-|in.|
w: soft * * and *|si- lent|as the|shades Their|night- * * ly|min- * * utes|gent- ly|move.|
V:2
 F4 | F8 G4 | (A4 G4) F4 | G8 G4 | A8 A4 | F8 (G2 E2) | F8 G4 | (A4 G4) E4 | F8 F4 | F8 G4 | %10
w: 3.~Quick|as their|thoughts * their|joys come|on, But|fly not *|half so|swift * a-|way; Their|souls are|
w: 4.~How|oft they|look * to|th'hea- venly|hills, Where|groves of *|li- ving|plea- * sure|grow! And|lon- ging|
 (A3 G A4) G4 | A8 G4 | G8 F4 | (A3 G F4) (F2 G2) | (A2 F2 B2 G2) (A2 F2) | (G4 F4) E4 | F8 |] %17
w: ev- * * er|bright as|noon, And|calm * * as *|sum- * * * mer *|eve- * nings|be.|
w: hopes * * and|cheer- ful|smiles Sit|un- * * dis- *|turbed * * * up- *|on * their|brow.|
V:3
 F4 | (c4 d4) e4 | (f3 e d4) c4 | d8 e4 | f8 f4 | (d4 c4) (B2 cd) | (c4 d4) e4 | (f4 e2 d2) ^c4 | %8
w: 5.~They|scorn * to|seek * * our|gol- den|toys, But|spend * the * *|day * and|share * * the|
w: 6.~While|wret- * ched|we, * * like|worms and|moles, Lie|gro- * velling * *|in * the|dust * * be-|
 d8 c4 | c8 B4 | (A4 d4) e4 | (f6 e2) d4 | c8 c4 | (f4 c4) (B2 cd) | (c4 B4) (A2 Bc) | (B4 A4) G4 | %16
w: night In|num- bering|o'er * the|ri- * cher|joys That|heaven * pre- * *|pares * for * *|their * de-|
w: low: Al-|migh- ty|grace, * re-|new * our|souls, And|we'll * as- * *|pire * to * *|glo- * ry|
 F8 |] %17
w: light.|
w: too.|
V:4
 F,4 | (F,3 E, D,4) C,4 | (F,4 G,4) A,4 | G,8 C,4 | F,8 F,4 | (B,4 A,4) G,4 | (F,3 E, D,4) C,4 | %7
 (F,4 G,4) A,4 | D,8 F,4 | (F,3 G, A,4) G,4 | (F,3 E, D,4) C,4 | F,8 G,4 | C,8 F,4 | %13
 (F,3 G, A,4) B,4 | (A,4 G,4) F,4 | %15
"^__________________________________________________\nOriginally published without words;\nthese words chosen by Nathan, 1977." (B,,3 C, D,2 B,,2) C,4 | %16
 F,,8 |] %17

